!!key: tele-40-8-Fan-Pre-2-Flute
!!!COM: Telemann, Georg Philipp
!!!CDT: 1681/03/14-1767/06/25
!!!CBL: Magdeburg
!!!CDL: Hamburg
!!!CNT: German
!!!TWV: 40:8
!!!TWV-genre: 40
!!!TWV-work: 8
!!!OPR: 12 Fantasias for transverse flute without bass
!!!OTL: Fantasia 7
!!!OMD: Presto
!!!OMV: 2
!!!ODT: ca. 1732–1733
!!!AST: Late Baroque
!!!AGN: Fantasia
!!!AMT: Simple quadruple
!!!AIN: Transverse flute
**kern
*ICww
*Iflt
*clefG2
*k[f#c#]
*D:
*M4/4
*met(c)
8ddL
16ee
16ff#J
=1
4ee
4dd
4cc#
8bL
8aJ
=2
4dd
4a
4d
8ddL
16ee
16ff#J
=3
4ee
4dd
4cc#
8bL
8aJ
=4
2dd
4d
8ddL
16ee
16ff#J
=5
4ee
4dd
4cc#
8bL
8aJ
!!LO:LB:g=original
=6
4dd
4a
4d
8ddL
16ee
16ff#J
=7
4ee
4dd
4cc#
8bL
8aJ
=8
2.dd
8ff#L
8gg#XJ
=9
4aa
4a
4a
4a
=10
!TODO: trill +
2.a
8cc#L
8eeJ
=11
4a
8ddL
8ff#J
4a
8cc#L
8eeJ
=12
4a
8eeL
8aaJ
4a
8cc#L
8dd#XJ
!!LO:LB:g=original
=13
4ee
4e
4e
4e
=14
!TODO: trill +
2.e
4dd
=15
4cc#
4b
4a
8bL
8g#XJ
=16
2.a
8ddL
16ee
16ff#J
=17
4ee
4dd
4cc#
8bL
8aJ
=18
4dd
4a
4d
8ddL
16ee
16ff#J
=19
4ee
4dd
4cc#
8bL
8aJ
!!LO:LB:g=original
=20
2dd
4d
8ddL
16ee
16ff#J
=21
4ee
4dd
4cc#
8bL
8aJ
=22
4dd
4a
4d
8ddL
16ee
16ff#J
=23
4ee
4dd
4cc#
8bL
8aJ
=24
2.dd
4dd
=25
4gg
(8ggL
8bb)J
4gg
4dd
=26
2gg
4g
4a
!!LO:LB:g=original
=27
4b
4dd
4a
4ccn
=28
2g
4b
(8aL
8b)J
=29
(8ddL
8b
8a
8b)J
(8gL
8b
8a
8b)J
=30
(8ccnL
8b
8a
8b)J
4g
4dd
=31
4cc#X
4dd
4gg
4ff#
=32
!TODO: trill +
(2ff#
4ee)
8ddL
16ee
16ff#J
=33
4ee
4dd
4cc#
8bL
8aJ
!!LO:LB:g=original
=34
4dd
4a
4d
8ddL
16ee
16ff#J
=35
4ee
4dd
4cc#
8bL
8aJ
=36
2dd
4d
8ddL
16ee
16ff#J
=37
4ee
4dd
4cc#
8bL
8aJ
=38
4dd
4a
4d
8ddL
16ee
16ff#J
=39
4ee
4dd
4cc#
8bL
8aJ
=40
2.dd
==
*-
!!!RTL1: G. PH. Telemann: Twelve Fantasias for Flute without Bass TWV 40:2-13
!!!RPN1: D'Arcangelo, Rita
!!!RMM1: Da Vinci Classics
!!!RC#1: DV-C00440
!!!RRD1: 2022
!!!RLC1: Andreaskirche, Berlin, Germany
!!!RDT1: 16 September 2020, 17 September 2020
!!!RT#1: 7
!!!RTL2: The Telemann Files: 12 Fantasies for Solo Flute
!!!RPN2: Choi, Jasmine
!!!RMM2: Austrian Gramophone
!!!RC#2: AG0001
!!!RRD2: February 2015
!!!RLC2: LeFrak Hall, Queens, USA
!!!RDT2: 9 June 2014, 10 June 2014
!!!RT#2: 7
!!!RTL3: Georg Philipp Telemann: Twelve Fantasies for Flute
!!!RPN3: Robertello, Thomas
!!!RMM3: Delos
!!!RC#3: DE3396
!!!RRD3: 1 June 2009
!!!RLC3: Clear Creek Recording, Keene, California
!!!RDT3: Unknown
!!!RT#3: 7
